X: 1
T: Maura Connolly's
M: 4/4
L: 1/8
R: reel
K: Ador
cBAG EGAc|B~G3 DGBd|cBAG ~E3F|GEDG E~A,3|
cBAG EGAc|B~G3 DGBd|cBcd egfa|1 gedB cAAB:|2 gedB cAAG||
A2 c/B/A eAcA|GABd gdBG|A/A/A ce a2 ba|gedB cAAg|
aged cdef|~g3a gedB|cBAG ~E3F|1 GEDG E~A,3:|2 GEDG EA,A,A||
